; generated by PrusaSlicer 2.2.0+win64 on 2021-09-15 at 23:47:34 UTC

; 

; external perimeters extrusion width = 0.45mm
; perimeters extrusion width = 0.45mm
; infill extrusion width = 0.45mm
; solid infill extrusion width = 0.45mm
; top infill extrusion width = 0.40mm
; first layer extrusion width = 0.42mm

M201 X500 Y500 Z100 E5000 ; sets maximum accelerations, mm/sec^2
M203 X500 Y500 Z10 E60 ; sets maximum feedrates, mm/sec
M204 P500 R1000 T500 ; sets acceleration (P, T) and retract acceleration (R), mm/sec^2
M205 X8.00 Y8.00 Z0.40 E5.00 ; sets the jerk limits, mm/sec
M205 S0 T0 ; sets the minimum extruding and travel feed rate, mm/sec
M107
G90 ; use absolute coordinates
M83 ; extruder relative mode
M104 S215 ; set extruder temp
M140 S40 ; set bed temp
M190 S40 ; wait for bed temp
M109 S215 ; wait for extruder temp
G28 ; home all
G1 Z2 F240
G1 X2 Y10 F3000
G1 Z0.28 F240
G92 E0.0
G1 Y190 E15.0 F1500.0 ; intro line
G1 X2.3 F5000
G1 Y10 E30 F1200.0 ; intro line
G92 E0.0
G21 ; set units to millimeters
G90 ; use absolute coordinates
M83 ; use relative distances for extrusion
; Filament gcode
;BEFORE_LAYER_CHANGE
;0.2


G1 E-5.00000 F3600.00000
G1 Z0.200 F9000.000
;AFTER_LAYER_CHANGE
;0.2
G1 X87.540 Y86.519
G1 E5.00000 F2400.00000
G1 F1200.000
G1 X89.041 Y85.171 E0.06325
G1 X90.507 Y84.004 E0.05876
G1 X92.096 Y82.885 E0.06095
G1 X93.747 Y81.865 E0.06083
G1 X95.401 Y80.974 E0.05892
G1 X97.290 Y80.099 E0.06528
G1 X99.035 Y79.415 E0.05876
G1 X100.884 Y78.814 E0.06095
G1 X102.761 Y78.326 E0.06083
G1 X104.601 Y77.963 E0.05880
G1 X106.663 Y77.683 E0.06524
G1 X108.537 Y77.544 E0.05892
G1 X110.446 Y77.515 E0.05987
G1 X112.492 Y77.608 E0.06421
G1 X114.356 Y77.805 E0.05876
G1 X116.273 Y78.124 E0.06095
G1 X118.165 Y78.556 E0.06083
G1 X119.969 Y79.081 E0.05892
G1 X121.929 Y79.784 E0.06528
G1 X123.651 Y80.522 E0.05876
G1 X125.390 Y81.391 E0.06095
G1 X127.070 Y82.361 E0.06083
G1 X128.639 Y83.395 E0.05892
G1 X130.301 Y84.641 E0.06512
G1 X131.733 Y85.857 E0.05892
G1 X133.136 Y87.198 E0.06083
G1 X134.506 Y88.679 E0.06325
G1 X135.695 Y90.127 E0.05876
G1 X136.837 Y91.699 E0.06095
G1 X137.882 Y93.334 E0.06083
G1 X138.798 Y94.975 E0.05892
G1 X139.701 Y96.851 E0.06528
G1 X140.411 Y98.585 E0.05876
G1 X141.039 Y100.425 E0.06095
G1 X141.555 Y102.295 E0.06083
G1 X141.947 Y104.133 E0.05892
G1 X142.257 Y106.192 E0.06528
G1 X142.424 Y108.058 E0.05876
G1 X142.482 Y110.001 E0.06095
G1 X142.424 Y111.940 E0.06083
G1 X142.257 Y113.812 E0.05892
G1 X141.946 Y115.871 E0.06528
G1 X141.555 Y117.704 E0.05876
G1 X141.038 Y119.577 E0.06095
G1 X140.411 Y121.413 E0.06083
G1 X139.701 Y123.149 E0.05880
G1 X138.799 Y125.024 E0.06524
G1 X137.883 Y126.665 E0.05892
G1 X136.838 Y128.299 E0.06083
G1 X135.650 Y129.930 E0.06325
G1 X134.459 Y131.377 E0.05876
G1 X133.137 Y132.801 E0.06095
G1 X131.734 Y134.142 E0.06083
G1 X130.302 Y135.358 E0.05892
G1 X128.636 Y136.607 E0.06528
G1 X127.071 Y137.638 E0.05876
G1 X125.388 Y138.610 E0.06095
G1 X123.652 Y139.478 E0.06083
G1 X121.929 Y140.216 E0.05880
G1 X119.970 Y140.918 E0.06524
G1 X118.166 Y141.444 E0.05892
G1 X116.274 Y141.876 E0.06083
G1 X114.357 Y142.194 E0.06095
G1 X112.492 Y142.392 E0.05880
G1 X110.444 Y142.485 E0.06429
G1 X108.538 Y142.456 E0.05975
G1 X106.664 Y142.317 E0.05892
G1 X104.601 Y142.037 E0.06528
G1 X102.763 Y141.674 E0.05876
G1 X100.881 Y141.185 E0.06095
G1 X99.036 Y140.585 E0.06083
G1 X97.287 Y139.900 E0.05892
G1 X95.402 Y139.027 E0.06512
G1 X93.748 Y138.135 E0.05892
G1 X92.094 Y137.114 E0.06095
G1 X90.508 Y135.997 E0.06083
G1 X89.038 Y134.826 E0.05892
G1 X87.491 Y133.433 E0.06528
G1 X86.176 Y132.097 E0.05876
G1 X84.898 Y130.633 E0.06095
G1 X83.711 Y129.098 E0.06083
G1 X82.651 Y127.547 E0.05892
G1 X81.586 Y125.764 E0.06512
G1 X80.721 Y124.095 E0.05892
G1 X79.931 Y122.319 E0.06095
G1 X79.249 Y120.503 E0.06083
G1 X78.694 Y118.708 E0.05892
G1 X78.201 Y116.685 E0.06528
G1 X77.867 Y114.841 E0.05876
G1 X77.635 Y112.911 E0.06095
G1 X77.519 Y110.974 E0.06083
G1 X77.518 Y109.099 E0.05880
G1 X77.642 Y107.022 E0.06524
G1 X77.868 Y105.157 E0.05892
G1 X78.215 Y103.244 E0.06095
G1 X78.675 Y101.359 E0.06083
G1 X79.227 Y99.563 E0.05892
G1 X79.957 Y97.619 E0.06512
G1 X80.722 Y95.902 E0.05892
G1 X81.618 Y94.177 E0.06095
G1 X82.613 Y92.512 E0.06083
G1 X83.671 Y90.959 E0.05892
G1 X84.941 Y89.315 E0.06512
G1 X86.178 Y87.901 E0.05892
G1 X87.498 Y86.562 E0.05895
G1 E-3.50000 F3600.00000
G1 F7200.000
G1 X89.041 Y85.171 E-0.98671
G1 X89.763 Y84.597 E-0.43829
G1 E-0.07500 F3600.00000
G1 X106.098 Y106.243 F9000.000
G1 E5.00000 F2400.00000
G1 F1200.000
G1 X106.716 Y105.693 E0.02596
G1 X107.404 Y105.248 E0.02570
G1 X108.168 Y104.905 E0.02626
G1 X108.968 Y104.686 E0.02598
G1 X109.782 Y104.592 E0.02570
G1 X110.619 Y104.624 E0.02626
G1 X111.432 Y104.783 E0.02598
G1 X112.203 Y105.060 E0.02568
G1 X112.931 Y105.455 E0.02596
G1 X113.590 Y105.957 E0.02599
G1 X114.171 Y106.560 E0.02628
G1 X114.648 Y107.239 E0.02598
G1 X115.011 Y107.973 E0.02568
G1 X115.262 Y108.762 E0.02598
G1 X115.390 Y109.590 E0.02626
G1 X115.390 Y110.410 E0.02570
G1 X115.264 Y111.228 E0.02596
G1 X115.015 Y112.019 E0.02599
G1 X114.643 Y112.770 E0.02628
G1 X114.165 Y113.447 E0.02599
G1 X113.590 Y114.044 E0.02598
G1 X112.931 Y114.545 E0.02596
G1 X112.211 Y114.937 E0.02570
G1 X111.423 Y115.220 E0.02626
G1 X110.609 Y115.377 E0.02599
G1 X109.781 Y115.408 E0.02596
G1 X108.968 Y115.314 E0.02568
G1 X108.168 Y115.095 E0.02598
G1 X107.404 Y114.752 E0.02628
G1 X106.708 Y114.301 E0.02599
G1 X106.091 Y113.749 E0.02596
G1 X105.570 Y113.117 E0.02568
G1 X105.145 Y112.406 E0.02598
G1 X104.832 Y111.628 E0.02628
G1 X104.644 Y110.821 E0.02599
G1 X104.581 Y109.995 E0.02596
G1 X104.644 Y109.179 E0.02568
G1 X104.832 Y108.372 E0.02598
G1 X105.145 Y107.594 E0.02628
G1 X105.570 Y106.882 E0.02599
G1 X106.059 Y106.290 E0.02410
G1 X106.350 Y106.530 F9000.000
G1 F1200.000
G1 X106.945 Y105.994 E0.02512
G1 X107.585 Y105.580 E0.02389
G1 X108.296 Y105.261 E0.02444
G1 X109.039 Y105.058 E0.02416
G1 X109.796 Y104.970 E0.02389
G1 X110.575 Y105.000 E0.02444
G1 X111.331 Y105.148 E0.02416
G1 X112.048 Y105.405 E0.02388
G1 X112.725 Y105.772 E0.02415
G1 X113.339 Y106.239 E0.02417
G1 X113.880 Y106.801 E0.02445
G1 X114.322 Y107.432 E0.02416
G1 X114.660 Y108.114 E0.02388
G1 X114.893 Y108.849 E0.02416
G1 X115.012 Y109.619 E0.02444
G1 X115.012 Y110.381 E0.02389
G1 X114.896 Y111.142 E0.02415
G1 X114.664 Y111.877 E0.02417
G1 X114.318 Y112.576 E0.02445
G1 X113.874 Y113.206 E0.02417
G1 X113.339 Y113.761 E0.02416
G1 X112.726 Y114.228 E0.02415
G1 X112.056 Y114.591 E0.02389
G1 X111.323 Y114.855 E0.02444
G1 X110.566 Y115.001 E0.02417
G1 X109.796 Y115.030 E0.02415
G1 X109.039 Y114.942 E0.02388
G1 X108.296 Y114.739 E0.02416
G1 X107.585 Y114.420 E0.02445
G1 X106.938 Y114.000 E0.02417
G1 X106.363 Y113.487 E0.02415
G1 X105.879 Y112.900 E0.02388
G1 X105.484 Y112.238 E0.02416
G1 X105.193 Y111.514 E0.02445
G1 X105.018 Y110.764 E0.02417
G1 X104.960 Y109.995 E0.02415
G1 X105.018 Y109.236 E0.02388
G1 X105.193 Y108.486 E0.02416
G1 X105.484 Y107.762 E0.02445
G1 X105.879 Y107.100 E0.02417
G1 X106.312 Y106.576 E0.02131
G1 X106.602 Y106.816 F9000.000
G1 F1200.000
G1 X107.175 Y106.295 E0.02427
G1 X107.765 Y105.912 E0.02208
G1 X108.424 Y105.617 E0.02262
G1 X109.111 Y105.429 E0.02235
G1 X109.811 Y105.348 E0.02208
G1 X110.532 Y105.376 E0.02262
G1 X111.231 Y105.512 E0.02235
G1 X111.894 Y105.750 E0.02207
G1 X112.520 Y106.090 E0.02234
G1 X113.087 Y106.522 E0.02235
G1 X113.588 Y107.041 E0.02262
G1 X113.997 Y107.625 E0.02235
G1 X114.310 Y108.256 E0.02207
G1 X114.525 Y108.935 E0.02235
G1 X114.635 Y109.648 E0.02262
G1 X114.635 Y110.352 E0.02208
G1 X114.527 Y111.056 E0.02234
G1 X114.313 Y111.736 E0.02235
G1 X113.993 Y112.383 E0.02262
G1 X113.582 Y112.965 E0.02235
G1 X113.087 Y113.479 E0.02235
G1 X112.520 Y113.910 E0.02234
G1 X111.902 Y114.246 E0.02208
G1 X111.223 Y114.490 E0.02262
G1 X110.523 Y114.625 E0.02235
G1 X109.811 Y114.652 E0.02234
G1 X109.111 Y114.571 E0.02207
G1 X108.424 Y114.383 E0.02235
G1 X107.765 Y114.088 E0.02262
G1 X107.167 Y113.700 E0.02235
G1 X106.636 Y113.225 E0.02234
G1 X106.188 Y112.682 E0.02207
G1 X105.823 Y112.070 E0.02235
G1 X105.553 Y111.400 E0.02262
G1 X105.392 Y110.706 E0.02235
G1 X105.338 Y109.996 E0.02234
G1 X105.392 Y109.294 E0.02207
G1 X105.553 Y108.600 E0.02235
G1 X105.823 Y107.930 E0.02262
G1 X106.188 Y107.318 E0.02235
G1 X106.564 Y106.863 E0.01852
G1 X106.488 Y106.433 F9000.000
G1 E-3.50000 F3600.00000
G1 F7200.000
G1 X107.175 Y106.295 E-0.39592
G1 X107.765 Y105.912 E-0.33444
G1 X108.424 Y105.617 E-0.34267
G1 X109.111 Y105.429 E-0.33855
G1 X109.139 Y105.426 E-0.01342
G1 E-0.07500 F3600.00000
G1 X88.123 Y90.751 F9000.000
G1 E5.00000 F2400.00000
G1 F1200.000
G1 X88.627 Y90.175 E0.02400
G1 X89.851 Y88.933 E0.05468
G1 X91.147 Y87.766 E0.05468
G1 X92.510 Y86.678 E0.05468
G1 X93.936 Y85.675 E0.05468
G1 X95.420 Y84.758 E0.05468
G1 X96.955 Y83.931 E0.05468
G1 X98.517 Y83.208 E0.05398
G1 X100.161 Y82.561 E0.05539
G1 X101.820 Y82.022 E0.05467
G1 X103.507 Y81.584 E0.05468
G1 X105.218 Y81.247 E0.05468
G1 X106.947 Y81.013 E0.05468
G1 X108.686 Y80.882 E0.05468
G1 X110.429 Y80.856 E0.05468
G1 X112.149 Y80.933 E0.05398
G1 X113.906 Y81.117 E0.05539
G1 X115.626 Y81.402 E0.05467
G1 X117.326 Y81.790 E0.05468
G1 X119.000 Y82.279 E0.05468
G1 X120.621 Y82.860 E0.05398
G1 X122.246 Y83.553 E0.05539
G1 X123.805 Y84.333 E0.05467
G1 X125.296 Y85.194 E0.05398
G1 X126.771 Y86.166 E0.05539
G1 X128.166 Y87.212 E0.05467
G1 X129.496 Y88.339 E0.05468
G1 X130.757 Y89.545 E0.05468
G1 X131.943 Y90.823 E0.05468
G1 X133.051 Y92.170 E0.05468
G1 X134.076 Y93.581 E0.05468
G1 X135.015 Y95.050 E0.05468
G1 X135.853 Y96.554 E0.05398
G1 X136.621 Y98.145 E0.05539
G1 X137.282 Y99.758 E0.05467
G1 X137.845 Y101.409 E0.05468
G1 X138.309 Y103.090 E0.05468
G1 X138.672 Y104.796 E0.05468
G1 X138.932 Y106.520 E0.05468
G1 X139.088 Y108.257 E0.05468
G1 X139.140 Y110.000 E0.05468
G1 X139.088 Y111.743 E0.05468
G1 X138.932 Y113.480 E0.05468
G1 X138.672 Y115.204 E0.05468
G1 X138.309 Y116.910 E0.05468
G1 X137.845 Y118.591 E0.05468
G1 X137.282 Y120.242 E0.05468
G1 X136.620 Y121.855 E0.05468
G1 X135.874 Y123.406 E0.05398
G1 X135.014 Y124.950 E0.05539
G1 X134.076 Y126.419 E0.05467
G1 X133.051 Y127.830 E0.05468
G1 X131.943 Y129.177 E0.05468
G1 X130.757 Y130.455 E0.05468
G1 X129.496 Y131.661 E0.05468
G1 X128.166 Y132.788 E0.05468
G1 X126.789 Y133.821 E0.05398
G1 X125.315 Y134.795 E0.05539
G1 X123.805 Y135.667 E0.05467
G1 X122.265 Y136.437 E0.05398
G1 X120.642 Y137.132 E0.05539
G1 X119.000 Y137.721 E0.05467
G1 X117.326 Y138.210 E0.05468
G1 X115.626 Y138.598 E0.05468
G1 X113.928 Y138.880 E0.05398
G1 X112.171 Y139.066 E0.05539
G1 X110.429 Y139.144 E0.05467
G1 X108.686 Y139.118 E0.05468
G1 X106.947 Y138.987 E0.05468
G1 X105.241 Y138.756 E0.05398
G1 X103.507 Y138.416 E0.05539
G1 X101.820 Y137.978 E0.05467
G1 X100.161 Y137.439 E0.05468
G1 X98.538 Y136.802 E0.05468
G1 X96.955 Y136.069 E0.05468
G1 X95.420 Y135.242 E0.05468
G1 X93.936 Y134.325 E0.05468
G1 X92.510 Y133.322 E0.05468
G1 X91.147 Y132.234 E0.05468
G1 X89.851 Y131.067 E0.05468
G1 X88.627 Y129.825 E0.05468
G1 X87.480 Y128.512 E0.05468
G1 X86.413 Y127.132 E0.05468
G1 X85.430 Y125.691 E0.05468
G1 X84.536 Y124.194 E0.05468
G1 X83.733 Y122.646 E0.05468
G1 X83.023 Y121.053 E0.05468
G1 X82.411 Y119.421 E0.05468
G1 X81.897 Y117.754 E0.05468
G1 X81.483 Y116.060 E0.05468
G1 X81.172 Y114.344 E0.05468
G1 X80.963 Y112.613 E0.05468
G1 X80.859 Y110.872 E0.05468
G1 X80.859 Y109.128 E0.05468
G1 X80.963 Y107.387 E0.05468
G1 X81.172 Y105.656 E0.05468
G1 X81.483 Y103.940 E0.05468
G1 X81.897 Y102.246 E0.05468
G1 X82.404 Y100.601 E0.05398
G1 X83.023 Y98.946 E0.05539
G1 X83.733 Y97.354 E0.05467
G1 X84.536 Y95.806 E0.05468
G1 X85.430 Y94.309 E0.05468
G1 X86.413 Y92.868 E0.05468
G1 X87.480 Y91.488 E0.05468
G1 X88.084 Y90.797 E0.02880
G1 X87.800 Y90.548 F9000.000
G1 F1200.000
G1 X88.350 Y89.918 E0.02623
G1 X89.590 Y88.660 E0.05539
G1 X90.903 Y87.478 E0.05539
G1 X92.284 Y86.377 E0.05539
G1 X93.728 Y85.360 E0.05539
G1 X95.231 Y84.431 E0.05539
G1 X96.787 Y83.594 E0.05539
G1 X98.369 Y82.861 E0.05468
G1 X100.034 Y82.206 E0.05610
G1 X101.714 Y81.660 E0.05538
G1 X103.423 Y81.216 E0.05539
G1 X105.157 Y80.874 E0.05539
G1 X106.907 Y80.637 E0.05539
G1 X108.669 Y80.505 E0.05539
G1 X110.435 Y80.479 E0.05539
G1 X112.177 Y80.557 E0.05468
G1 X113.957 Y80.743 E0.05610
G1 X115.699 Y81.032 E0.05538
G1 X117.421 Y81.425 E0.05539
G1 X119.117 Y81.921 E0.05539
G1 X120.759 Y82.509 E0.05468
G1 X122.404 Y83.211 E0.05610
G1 X123.984 Y84.001 E0.05538
G1 X125.494 Y84.873 E0.05468
G1 X126.988 Y85.857 E0.05610
G1 X128.401 Y86.917 E0.05538
G1 X129.749 Y88.059 E0.05539
G1 X131.026 Y89.280 E0.05539
G1 X132.227 Y90.575 E0.05539
G1 X133.349 Y91.939 E0.05539
G1 X134.387 Y93.368 E0.05539
G1 X135.338 Y94.857 E0.05539
G1 X136.188 Y96.380 E0.05468
G1 X136.965 Y97.992 E0.05610
G1 X137.635 Y99.626 E0.05538
G1 X138.206 Y101.298 E0.05539
G1 X138.676 Y103.000 E0.05539
G1 X139.043 Y104.728 E0.05539
G1 X139.306 Y106.475 E0.05539
G1 X139.465 Y108.234 E0.05539
G1 X139.518 Y110.000 E0.05539
G1 X139.465 Y111.766 E0.05539
G1 X139.306 Y113.525 E0.05539
G1 X139.043 Y115.272 E0.05539
G1 X138.676 Y117.000 E0.05539
G1 X138.206 Y118.702 E0.05539
G1 X137.635 Y120.374 E0.05539
G1 X136.965 Y122.009 E0.05539
G1 X136.208 Y123.580 E0.05468
G1 X135.338 Y125.143 E0.05610
G1 X134.387 Y126.632 E0.05538
G1 X133.349 Y128.061 E0.05539
G1 X132.227 Y129.425 E0.05539
G1 X131.026 Y130.720 E0.05539
G1 X129.749 Y131.941 E0.05539
G1 X128.401 Y133.083 E0.05539
G1 X127.006 Y134.129 E0.05468
G1 X125.514 Y135.116 E0.05610
G1 X123.984 Y135.999 E0.05538
G1 X122.424 Y136.779 E0.05468
G1 X120.780 Y137.484 E0.05610
G1 X119.117 Y138.079 E0.05538
G1 X117.421 Y138.575 E0.05539
G1 X115.699 Y138.968 E0.05539
G1 X113.979 Y139.253 E0.05468
G1 X112.199 Y139.442 E0.05610
G1 X110.435 Y139.521 E0.05538
G1 X108.669 Y139.495 E0.05539
G1 X106.907 Y139.363 E0.05539
G1 X105.179 Y139.129 E0.05468
G1 X103.423 Y138.784 E0.05610
G1 X101.714 Y138.340 E0.05538
G1 X100.034 Y137.794 E0.05539
G1 X98.389 Y137.148 E0.05539
G1 X96.787 Y136.406 E0.05539
G1 X95.231 Y135.569 E0.05539
G1 X93.728 Y134.640 E0.05539
G1 X92.284 Y133.623 E0.05539
G1 X90.903 Y132.522 E0.05539
G1 X89.590 Y131.340 E0.05539
G1 X88.350 Y130.082 E0.05539
G1 X87.188 Y128.751 E0.05539
G1 X86.108 Y127.354 E0.05539
G1 X85.112 Y125.894 E0.05539
G1 X84.206 Y124.378 E0.05539
G1 X83.393 Y122.810 E0.05539
G1 X82.674 Y121.196 E0.05539
G1 X82.054 Y119.543 E0.05539
G1 X81.533 Y117.855 E0.05539
G1 X81.114 Y116.138 E0.05539
G1 X80.799 Y114.400 E0.05539
G1 X80.588 Y112.647 E0.05539
G1 X80.482 Y110.883 E0.05539
G1 X80.482 Y109.117 E0.05539
G1 X80.588 Y107.353 E0.05539
G1 X80.799 Y105.600 E0.05539
G1 X81.114 Y103.862 E0.05539
G1 X81.533 Y102.145 E0.05539
G1 X82.047 Y100.479 E0.05468
G1 X82.674 Y98.803 E0.05610
G1 X83.393 Y97.190 E0.05538
G1 X84.206 Y95.622 E0.05539
G1 X85.112 Y94.106 E0.05539
G1 X86.108 Y92.646 E0.05539
G1 X87.188 Y91.249 E0.05539
G1 X87.760 Y90.594 E0.02727
G1 X87.476 Y90.346 F9000.000
G1 F1200.000
G1 X88.074 Y89.662 E0.02847
G1 X89.329 Y88.387 E0.05609
G1 X90.659 Y87.190 E0.05609
G1 X92.058 Y86.075 E0.05609
G1 X93.521 Y85.045 E0.05609
G1 X95.042 Y84.104 E0.05609
G1 X96.618 Y83.257 E0.05609
G1 X98.221 Y82.514 E0.05538
G1 X99.907 Y81.851 E0.05681
G1 X101.608 Y81.298 E0.05609
G1 X103.340 Y80.848 E0.05609
G1 X105.095 Y80.502 E0.05609
G1 X106.868 Y80.262 E0.05609
G1 X108.652 Y80.129 E0.05609
G1 X110.441 Y80.102 E0.05609
G1 X112.205 Y80.181 E0.05538
G1 X114.007 Y80.369 E0.05681
G1 X115.772 Y80.662 E0.05609
G1 X117.516 Y81.060 E0.05609
G1 X119.233 Y81.562 E0.05609
G1 X120.896 Y82.158 E0.05538
G1 X122.563 Y82.869 E0.05681
G1 X124.163 Y83.669 E0.05609
G1 X125.692 Y84.552 E0.05538
G1 X127.205 Y85.549 E0.05681
G1 X128.637 Y86.622 E0.05609
G1 X130.001 Y87.779 E0.05609
G1 X131.294 Y89.015 E0.05609
G1 X132.511 Y90.327 E0.05609
G1 X133.648 Y91.708 E0.05609
G1 X134.699 Y93.156 E0.05609
G1 X135.662 Y94.663 E0.05609
G1 X136.522 Y96.206 E0.05538
G1 X137.310 Y97.838 E0.05681
G1 X137.988 Y99.493 E0.05609
G1 X138.566 Y101.186 E0.05609
G1 X139.042 Y102.911 E0.05609
G1 X139.414 Y104.661 E0.05609
